!!!COM:	W.A. Mozart
!!!OTL:	Quartett K.156 2nd Movement
**kern	**kern	**kern	**kern	**dynam
*part4	*part3	*part2	*part1	*part1
*staff4	*staff3	*staff2	*staff1	*
*I"Cello	*I"Viola	*I"Violin II	*I"Violin I	*
*I'Vc.	*I'Vla.	*I'Vln. II	*I'Vln. I	*
*clefF4	*clefC3	*clefG2	*clefG2	*
*k[f#]	*k[f#]	*k[f#]	*k[f#]	*
*e:	*e:	*e:	*e:	*
*M4/4	*M4/4	*M4/4	*M4/4	*
=1	=1	=1	=1	=1
!	!	!	!LO:TX:a:B:t=Adagio	!
4G	4e	4g	4b	.
4r	4r	4r	(8eeL	.
.	.	.	8ggJ)	.
4A	4d#X	4c	(8ggL	.
.	.	.	8ff#J)	.
4G	4e	4B	16ee'LL	.
.	.	.	(16b	.
.	.	.	16ee	.
.	.	.	16ggJJ)	.
=2	=2	=2	=2	=2
4A	4c	4d#X	(8ggL	.
.	.	.	8ff#J)	.
4G	4A	4e	16ee'LL	.
.	.	.	(16e	.
.	.	.	16g	.
.	.	.	16bJJ)	.
8D#X'L	8f#'L	8a'L	8cc'L	.
8E'J	8B'J	8g'J	8b'J	.
4r	4r	4r	8r	.
.	.	.	(16bLL	.
.	.	.	16gJJ)	.
=3	=3	=3	=3	=3
4AA	8r	8r	(16gLL	.
.	.	.	16f#JJ)	.
.	(8cL	(8eL	4f#	.
4BB	8B	8d#X	.	.
.	8AJ)	8f#J	4dd#X	.
4C	8f#	8aL	.	.
.	4e	8g	4ee	.
4A	.	8cc	.	.
.	8e	8aJ)	[8cc	.
=4	=4	=4	=4	=4
4B	2d#X	8a	8cc]	.
.	.	4g	4b	.
4BB	.	.	.	.
.	.	8f#	8a	.
4E	4e	8eL	(16gLL	.
.	.	.	16f#JJ)	.
.	.	8GJ	8e	.
!	!	!	!	!
4F#	[4dn	(8.AL	4r	.
.	.	32BLL	.	.
.	.	32cJJJ)	.	.
=5	=5	=5	=5	=5
!!linebreak:original
4G	8.dL]	8.BL	(16ddLL	.
.	.	.	16gg)	.
.	.	.	16gg'	.
.	16bJk	16ddJk	16gg'JJ	.
4r	(16bLL	(16ddLL	8.ggTL	.
.	16a)	16cc)	.	.
.	(16a	(16cc	.	.
.	16gJJ)	16bJJ)	32ff#LL	.
.	.	.	32ggJJJ	.
4D	8.f#L	8.aL	(16ddLL	.
.	.	.	16aa)	.
.	.	.	16aa'	.
.	16aJk	16ccJk	16aa'JJ	.
4r	(16aLL	(16ccLL	8.aaTL	.
.	16g)	16b)	.	.
.	(16g	(16b	.	.
.	16f#JJ)	16aJJ)	32ggLL	.
.	.	.	32aaJJJ	.
=6	=6	=6	=6	=6
8GL	8.gTL	8.btL	8.bbtL	.
8EJ	.	.	.	.
.	32f#LL	32aLL	32aaLL	.
.	32gJJJ	32bJJJ	32bbJJJ	.
8CL	8aL	8cc'L	(16cccLL	.
.	.	.	16ee)	.
8C#XJ	8eJ	(16ccL	(16aa	.
.	.	16bJJ)	16ggJJ)	.
8DL	[4d	(4b	(4gg	.
8DJ	.	.	.	.
8DD	8d]	8a)	8ff#)	.
8r	8r	8r	8r	.
=7	=7	=7	=7	=7
4G	(8.gL	(8.bbL	4r	.
.	16aJk)	16cccJk)	.	.
4D	16gKL	16bbKL	16r	.
.	8f#	8aa	(64ddLLLL	.
.	.	.	64cc#X	.
.	.	.	64dd	.
.	.	.	64eeJJJJ)	.
.	.	.	(16ddLL	.
.	16gJk	16bbJk	16dJJ)	.
4F#	(8.aL	(8.cccL	4r	.
.	16bJk)	16dddJk)	.	.
4G	16aKL	16cccKL	16r	.
.	8g	8bb	(64ddLLLL	.
.	.	.	64cc#	.
.	.	.	64dd	.
.	.	.	64eeJJJJ)	.
.	.	.	(16ddLL	.
.	16aJk	16cccJk	16dJJ)	.
=8	=8	=8	=8	=8
!!linebreak:original
!	!	!	!	!
(8.GL	8b	[1ddd	(8.bL	.
.	8r	.	.	.
16AJk)	.	.	16ccnJk)	.
16GKL	16r	.	16bKL	.
8F#	(64dLLLL	.	8a	.
.	64c#X	.	.	.
.	64d	.	.	.
.	64eJJJJ)	.	.	.
.	(16dLL	.	.	.
16GJk	16DJJ)	.	16bJk	.
(8.AL	4r	.	(8.ccL	.
16BJk)	.	.	16ddJk)	.
16AKL	16r	.	16ccKL	.
8G	(64dLLLL	.	8b	.
.	64c#	.	.	.
.	64d	.	.	.
.	64eJJJJ)	.	.	.
.	(16dLL	.	.	.
16AJk	16DJJ)	.	16ccJk	.
=9	=9	=9	=9	=9
8BL	4r	16dddKL]	8dd	.
.	.	8b	.	.
8G	.	.	4gg	.
.	.	8dd	.	.
!	!	!	!	!
8GG	16BKL	.	.	.
.	8d	8b	.	.
8GJ	.	.	8dd	.
.	16BJk	16gJk	.	.
8AL	8AL	16r	(8.ddL	.
.	.	8eL	.	.
8A	(8g	.	.	.
.	.	8a	16cc#XJk)	.
8A	8e	.	4cc#	.
.	.	8g	.	.
8AJ	8gJ)	.	.	.
.	.	16eJk	.	.
=10	=10	=10	=10	=10
8DL	16r	16r	8cc	.
.	8AL	8f#L	.	.
8D	.	.	4aa	.
.	8f#	8a	.	.
8D	.	.	.	.
.	8f#	8d	.	.
8DJ	.	.	8cc	.
.	16AJk	16f#Jk	.	.
8GGL	8G'L	16r	(8.ccL	.
.	.	8f#L	.	.
8GG	(8d	.	.	.
.	.	8g	16bJk)	.
8GG	8B	.	4b	.
.	.	8G	.	.
8GGJ	8dJ)	.	.	.
.	.	16gJk	.	.
=11	=11	=11	=11	=11
!!linebreak:original
8r	8r	8r	(16dd#XLL	.
.	.	.	16ee)	.
8CL	8eL	8gL	(16ff#	.
.	.	.	16ggJJ)	.
8C	8e	8g	4gg	.
8CJ	8eJ	8gJ	.	.
8r	8r	8r	(16g#XLL	.
.	.	.	16a)	.
8DL	8dL	8f#L	(16b	.
.	.	.	16ccJJ)	.
8D	8A	8f#	4cc	.
8DJ	8AJ	8f#J	.	.
=12	=12	=12	=12	=12
8r	8r	8r	8cc#X	.
8GL	4B	4g	4ddn	.
8G	.	.	.	.
8CJ	8c	8g	24eeLL	.
.	.	.	24ccn	.
.	.	.	24aJJ	.
4D	8r	16bLL	(16ddLL	.
.	.	16gJJ	16bJJ)	.
.	4d	4B	(4gn	.
4DD	.	.	.	.
.	.	16qqd/	16qqb/	.
.	8F#	8c	8a)	.
=13	=13	=13	=13	=13
4GG	4G	4B	8gL	.
.	.	.	32qqaa/	.
.	.	.	16ggL	.
.	.	.	32ff#L	.
.	.	.	32eeJJJ	.
8r	8r	8r	4dd	.
8D	32f#LLL	32aLLL	.	.
.	32g	32b	.	.
.	32a	32cc	.	.
.	32f#JJJ	32aJJJ	.	.
4G	4g	4b	8ddL	.
.	.	.	32qqaa/	.
.	.	.	16ggL	.
.	.	.	32ff#L	.
.	.	.	32eeJJJ	.
8r	8r	8r	[4dd	.
8D	32f#LLL	32aLLL	.	.
.	32g	32b	.	.
.	32a	32cc	.	.
.	32f#JJJ	32aJJJ	.	.
=14	=14	=14	=14	=14
4GG	8gL	8bL	8ddL]	.
.	8D	16BL	(16dL	.
.	.	16cJJ	16eJJ)	.
4GG	8E	8BL	(8dL	.
.	8F#J	8AJ	8cJ)	.
[4GG	4F#	4A	(4c	.
8GG]	8G	8G	8B)	.
8r	8r	8r	8r	.
=15:|!	=15:|!	=15:|!	=15:|!	=15:|!
!!linebreak:original
8r	8r	8r	2fn	.
8G#XL	8BL	8dL	.	.
8G#	8B	8d	.	.
8G#J	8BJ	8dJ	.	.
4A	4c	8c'L	4e	.
.	.	(8G#X	.	.
4r	4r	8AJ)	8r	.
.	.	(16ccLL	(16eeLL	.
.	.	16aJJ)	16ccJJ)	.
=16	=16	=16	=16	=16
!	!	!	!	!
2r	2r	8g#XL	8b	.
.	.	(8dd	(8ffnL	.
.	.	8cc)	8eeJ)	.
.	.	(8BJ	(8gL	.
8r	8r	8c)	8aJ)	.
(8AL	(8cL	8r	8r	.
8G#XJ)	8BJ)	4r	4r	.
(8B	(8d	.	.	.
=17	=17	=17	=17	=17
8A#XL)	8c#XL)	8r	2gn	.
8A#	8c#	8eL	.	.
!	!	!	!	!
8A#	8c#	8e	.	.
8A#J	8c#J	8eJ	.	.
4B	4d	8d'L	4f#X	.
.	.	(8A#X	.	.
4r	4r	8BJ)	8r	.
.	.	(16ddLL	(16ff#XLL	.
.	.	16bJJ)	16ddJJ)	.
=18	=18	=18	=18	=18
2r	2r	8a#X	8cc#X'	.
.	.	(8eeL	(8ggL	.
.	.	8ddJ)	8ff#J)	.
.	.	(8c#XL	(8a#XL	.
8r	8r	8BJ)	8bJ)	.
(8GL	(8BL	8r	8r	.
8F#J)	8AJ)	4r	4r	.
(8E	(8G	.	.	.
=19	=19	=19	=19	=19
!!linebreak:original
8D#XL)	8F#L)	2b	4r	.
8D#	8F#	.	.	.
8D#	8F#	.	[2bb	.
8D#J	8F#J	.	.	.
.	.	32qqdd/	.	.
8EL	8G	(16ccnLL	.	.
.	.	16b	.	.
8E	4G	(16b	.	.
.	.	16ccJJ)	.	.
8E	.	[4cc	(16bbLL]	.
.	.	.	16aa)	.
8EJ	8E	.	(16aa	.
.	.	.	16gg#XJJ)	.
=20	=20	=20	=20	=20
8F#L	8F#L	4cc_	[2aa	.
8F#	8F#	.	.	.
8F#	8F#	(16ccLL]	.	.
.	.	16b)	.	.
8EJ	8F#J	(16b	.	.
.	.	16aJJ)	.	.
8D#XL	8F#	(16a#XLL	4aa_	.
.	.	16bJ)	.	.
8D#	4F#	8bJ	.	.
8D#	.	[4b	(16aaLL]	.
.	.	.	16ggn)	.
8D#J	8d#X	.	(16gg	.
.	.	.	16ff#JJ)	.
=21	=21	=21	=21	=21
8EL	4e	(16bLL]	4gg	.
.	.	16ee)	.	.
16r	.	(16ee	.	.
16BJk	.	16ddJJ)	.	.
(16BLL	8r	(16ddLL	(16ggLL	.
16A)	.	16cc)	16ff#)	.
(16A	16r	(16cc	(16ff#	.
16GJJ)	16b	16bJJ)	16eeJJ)	.
!LO:TX:b:i:t=cresc.	!LO:TX:b:i:t=cresc.	!	!	!
(16GLL	(16bLL	(16bLL	(16eeLL	.
!	!	!LO:TX:b:i:t=cresc.	!LO:TX:b:i:t=cresc.	!
16A)	16f#)	16cc)	16dd#X)	.
16A'	16f#'	16cc'	16dd#'	.
16B'JJ	16g'JJ	16b'JJ	16ee'JJ	.
16c'LL	16d#X'LL	16a'LL	16ff#'LL	.
16B'	16e'	16g'	16gg'	.
16A'	16f#'	16f#'	16aa'	.
16G'JJ	16g'JJ	16e'JJ	16bb'JJ	.
=22	=22	=22	=22	=22
4F#	4a	8d#X	8ccc'L	.
.	.	(8aL	(8cc	.
4r	4r	8g	8b	.
.	.	8f#J)	8aJ)	.
8r	8r	8eL	8gL	.
16.E'LL	16.e'LL	16.e'L	16.e'L	.
32D#X'JJk	32d#X'JJk	32dn'JJk	32d#X'JJk	.
8E'L	8e'L	8e'L	8e'L	.
8AA#X'J	8A'J	8A#X'J	8A#X'J	.
=23	=23	=23	=23	=23
!!linebreak:original
4BB	4B	8B	8B	.
.	.	16r	16r	.
!	!	!	!	!
.	.	(8G#XL	(8BL	.
!	!	!	!	!
4r	4r	.	.	.
.	.	8A	8c	.
.	.	8B	8d#X	.
4r	2r	.	.	.
.	.	8c	8e	.
.	.	8d#X	8f#	.
4r	.	.	.	.
.	.	8e	8g	.
.	.	16f#Jk)	16aJk)	.
=24	=24	=24	=24	=24
4E	4e	4g	4b	.
4r	4r	4r	(8eeL	.
.	.	.	8ggJ)	.
4A	4d#X	4c	(8ggL	.
.	.	.	8ff#J)	.
!	!	!	!	!
4G	4e	4B	16ee	.
.	.	.	(16bLL	.
.	.	.	16ee	.
.	.	.	16ggJJ)	.
=25	=25	=25	=25	=25
!	!	!	!	!
4A	4c	4d#X	(8ggL	.
.	.	.	8ff#J)	f
4G	4B	4e	16ee	.
.	.	.	(16gLL	.
.	.	.	16b	.
.	.	.	16ddJJ)	.
!	!	!	!	!
8D#X'L	8f#'L	8a'L	8cc'L	.
8E'J	8B'J	8g'J	8b'J	.
4r	4r	4r	8r	.
.	.	.	8ffn	.
=26	=26	=26	=26	=26
(4Dn	8r	8r	(4.a	.
.	(8dL	(8fnL	.	.
4E)	8c	8e	.	.
.	8BJ)	8dJ)	8g#X)	.
4AA	4A	4c	(8aL	.
.	.	.	8b	.
8r	8r	8r	8cc)	.
(8B	(8f#	(8a	8d#X'J	.
=27	=27	=27	=27	=27
!!linebreak:original
4c)	4e)	4g)	(8eL	.
.	.	.	8f#	.
8r	8r	8r	8g)	.
(8E	8g	8a#X	(8A#XJ	.
8D#XL)	8.f#L	(16bLL	8.BL)	.
.	.	16ff#)	.	.
8D#	.	16ff#'	.	.
.	16f#Jk	16ff#'JJ	16aJk	.
8BB	(16f#LL	8.ff#tL	(16aLL	.
.	16e)	.	16g)	.
8BBJ	(16e	.	16g	.
.	16d#XJJ)	32eeLL	16f#JJ	.
.	.	32ff#JJJ	.	.
=28	=28	=28	=28	=28
8EL	8.eL	(16ccLL	8.BL	.
.	.	16gg)	.	.
8E	.	16gg'	.	.
.	16BJk	16gg'JJ	16gJk	.
8E	(16BLL	8.ggTL	(16gLL	.
.	16A)	.	16f#)	.
8EJ	(16A	.	16f#	.
.	16GJJ)	32ff#LL	16eJJ	.
.	.	32ggJJJ	.	.
8AL	8.AL	8.eeL	(16ccLL	.
.	.	.	16ccc)	.
8C	.	.	16ccc'	.
.	16aJk	16ccJk	16ccc'JJ	.
8Dn	(16aLL	(16ccLL	8.cccTL	.
.	16g)	16b)	.	.
8DJ	(16g	(16b	.	.
.	16f#JJ)	16aJJ)	32bbLL	.
.	.	.	32cccJJJ	.
=29	=29	=29	=29	=29
8GL	8.gL	8.gL	(16bLL	.
.	.	.	16bb)	.
8BB	.	.	16bb	.
.	16bJk	16bJk	16bbJJ	.
8C	(16bLL	(16bLL	8.bbL	.
.	16a)	16a)	.	.
8CJ	(16a	(16a	.	.
.	16gJJ)	16gJJ)	32aaLL	.
.	.	.	32bbJJJ	.
8F#L	(8.cL	8.f#L	(16aLL	.
.	.	.	16aa)	.
8AA	.	.	16aa	.
.	16f#Jk)	16aJk	16aaJJ	.
8BB	(16f#LL	(16aLL	8.aaL	.
.	16e)	16g)	.	.
8BBJ	(16e	(16g	.	.
.	16d#XJJ)	16f#JJ)	32ggLL	.
.	.	.	32aaJJJ	.
=30	=30	=30	=30	=30
!!linebreak:original
4E	(8.eL	(8.gL	8gg	.
.	.	.	8r	.
.	16f#Jk)	16aJk)	.	.
4B	16eKL	16gKL	16r	.
.	8d#X	8f#	(64bLLLL	.
.	.	.	64a	.
.	.	.	64b	.
.	.	.	64ccJJJJ)	.
.	.	.	(16bLL	.
.	16eJk	16gJk	16BJJ)	.
4D#X	(8.f#L	(8.aL	4r	.
.	16gJk)	16bJk)	.	.
4E	16f#KL	16aKL	16r	.
.	8e	8g	(64bLLLL	.
.	.	.	64a	.
.	.	.	64b	.
.	.	.	64ccJJJJ)	.
.	.	.	(16bLL	.
.	16f#Jk	16aJk	16BJJ)	.
=31	=31	=31	=31	=31
(8.EL	(16gLL	8b	(8.ggL	.
.	16eJJ)	.	.	.
.	4B	8r	.	.
16F#Jk)	.	.	16aaJk)	.
16EKL	.	16r	16ggKL	.
8D#X	.	(64bLLLL	8ff#	.
.	.	64a	.	.
.	.	64b	.	.
.	.	64ccJJJJ)	.	.
!	!	!	!	!
.	4B	(16bLL	.	.
16EJk	.	16BJJ)	16ggJk	.
(8.F#L	.	4r	(8.aaL	.
.	4B	.	.	.
16GJk)	.	.	16bbJk)	.
16F#KL	.	16r	16aaKL	.
8E	.	(64bLLLL	8gg	.
.	.	64a	.	.
.	.	64b	.	.
.	.	64ccJJJJ)	.	.
.	8B	(16bLL	.	.
16F#Jk	.	16BJJ)	16aaJk	.
=32	=32	=32	=32	=32
8GL	16r	16r	8bb	.
.	8BL	8eL	.	.
!	!	!	!	!
8G	.	.	4ee	.
.	8e	8g	.	.
8G	.	.	.	.
.	8g	8b	.	.
8GJ	.	.	8bb	.
.	16BJk	16eJk	.	.
8F#L	16r	16r	(8.bbL	.
.	8c#XL	8eL	.	.
8F#	.	.	.	.
.	8f#	8c#X	16aa#XJk)	.
8F#	.	.	4aa#	.
.	8c#	8f#	.	.
8F#J	.	.	.	.
.	[16c#Jk	[16eJk	.	.
=33	=33	=33	=33	=33
!!linebreak:original
8BBL	16cKL	16eKL]	8aa	.
.	8B#X	8d#X	.	.
8BB	.	.	4B	.
.	8d#X	8f#	.	.
8BB	.	.	.	.
.	8f#	8a	.	.
8BBJ	.	.	8aa	.
.	8d#	8f#	.	.
8CL	.	.	(8.aaL	.
.	8f#	8d#	.	.
8C	.	.	.	.
.	8e	8e	16ggJk)	.
8GG	.	.	4gg	.
.	8e	8c	.	.
8GGJ	.	.	.	.
.	16B#Jk	16eJk	.	.
=34	=34	=34	=34	=34
4AA	8r	8r	(16eeLL	.
.	.	.	16ffn	.
.	8AL	8cL	16gg	.
.	.	.	16ffJJ)	.
4r	8A	8c	4ff	.
.	8AJ	8cJ	.	.
4AA	8r	8r	(16eeLL	.
.	.	.	16dd#X	.
.	8cL	8f#L	16ccc	.
.	.	.	16dd#JJ)	.
4r	8c	8f#	4dd#	.
.	8cJ	8f#J	.	.
=35	=35	=35	=35	=35
8AA#XL	1r	(16gLL	(16eeLL	.
.	.	16f#	16dd#X	.
8AA#	.	16g	16ee	.
.	.	16f#JJ)	16ff#JJ)	.
8AA#	.	4e	4gg	.
8AA#J	.	.	.	.
8BBL	.	8g	8ee	.
8BB	.	(4e	(4g	.
8BB	.	.	.	.
8BBJ	.	16f#LL	16aLL	.
.	.	16d#XJJ)	16f#JJ)	.
=36	=36	=36	=36	=36
4E	4G	4e	8eL	.
.	.	.	32qqff#/	f
.	.	.	(16eeL	.
.	.	.	32dd#XL	.
.	.	.	32eeJJJ)	.
8r	8r	8r	[4b	.
8B	32d#XLLL	(32f#LLL	.	.
.	32e	32g	.	.
.	32f#	32a	.	.
.	32d#JJJ	32f#JJJ)	.	.
4E	4e	4g	8bL]	.
.	.	.	32qqff#/	.
.	.	.	(16eeL	.
.	.	.	32dd#L	.
.	.	.	32eeJJJ)	.
8r	8r	8r	[4b	.
8BB	32d#LLL	(32f#LLL	.	.
.	32e	32g	.	.
.	32f#	32a	.	.
.	32d#JJJ	32f#JJJ)	.	.
=37	=37	=37	=37	=37
4E	8eL	8g	8b]	.
.	8EJ	(16BLL	(16gLL	.
.	.	16cJJ)	16aJJ)	.
4EE	8r	8B'L	8g'L	.
.	8D#X	8A'J	8f#'J	.
[4EE	(4D#	(4A	(4f#	.
8EE]	8E#X)	8G)	8e)	.
8r	8r	8r	8r	.
=:|!	=:|!	=:|!	=:|!	=:|!
*-	*-	*-	*-	*-
!!!system-decoration: [(s1,s2,s3,s4)]
